X:77
T:Rostiboli tenor
M:6/4
L:1/4
C:Giovani Ambrogio (Guglielmo Ebreo) c.1455
S:arr. Monica Celio (copyright 1995)
Z:ps
K:F
cccccA/B/ | cccccc | FFFFFG/A/ | BBBAAA |\
GGGGGA/B/ | cccccA/B/ | cccccc | FFFFFF | AABAGG | FFFFFF ||
GGAGGF | GGAGGG | BBBAAA | GGGGGF |\
GGAGGF | GGAGGG | ccBAGG | FFFFFF |]
